X: 43265
T: Woman Of The House, The
R: reel
M: 4/4
K: Gmajor
|:GABG cABA|GBdg egdB|GABG A2Bd|eA~A2 eABA|
GABG cABA|GBdg egdB|GABG A2GA|BGdc BGG2:|
|:gfeg fed2|efge dcBA|GABG A2Bd|eA~A2 eABA|
gfeg fed2|efge dcBA|GABG A2GA|BGdc BGG2:|

